X: 3
T: Lord Cornwallis Trip to Castlebar
%R: march, reel
B: "Twenty Four Country Dances for the Year 1799", Thomas Skillern, ed. p.2 #1
F: http://www.vwml.org/browse/browse-collections-dance-tune-books/browse-skillerns1799
Z: 2014 John Chambers <jc:trillian.mit.edu>
M: 2/4
L: 1/8
K: G
g |\
gBce | A/A/A AB | cedc | B/G/G Gg |\
gBce | A/A/A AB | cedc | B/G/G G :|
|: d |\
gdgb | egec | dgdB | A/A/A Ad |\
gdgb | egec | BdcA | G/G/G G :|
%%begintext align
%% Right hands across half round, left hands back
%% again, Change sides and back again, Cross over
%% and turn your Partner, right and left.
%%endtext
